X:275
T:Punter's Graveyard
R:reel
C:Dan Compton
Z:Transcribed by Dave Marshall
M:C|
K:D
|:~B3c d~B3|fgfe dcdB|ABcd ~c3B|ABcd cAA2|
~B3c d~B3|fgfe def^g|aA(3AAA ~c3d|edcd B4:|
|:BF(3FFF GBdB|c2ac bcac|b~f3 bfaf|e~c3 egfd|
BF(3FFF GBdB|c2ac bcac|b~f3 bfaf|(3efg fd B4:|
